X:922
T:Polska
T:efter Pelle Fors
O:Vikbolandet, Östergötland
S:efter Pelle Fors
B:Låtar efter Pelle Fors
R:Polska
Z:Björn Ek 2009-01-02
M:3/4
L:1/16
K:D
%
|:A2d2 d2A2 FDFA|A2d2 ((5:4dedcd) e3f|gagf efed cdcB|
A2d2 d2A2 FDFA  |A2d2 ((5:4dedcd) e3f|gfga b2a2 agec|e2d2 d8:|
%
L:1/8
%
|:!trill!dc cc ec|!trill!cB BB dB|!trill!BA A4        |!trill!AG GG BG|
!trill!GF FF AF  |!trill!FE E3 F |G/F/G/A/ BA A/G/E/C/|ED D4         :|
%
(:musicend:)
Första reprisens 2:a och 5:e takt, utökades ofta med 1/4 och spelades så:
(:music:)
